X:1
T:[ID 2-4]
T:[ID 2-4]
T:Bezeichnung standardisiert: Menuett mit Trio Men: Con Trio
T:Urheber unbekannt Erstbeleg: 1767 (Datum in der schriftlichen Quelle) Datum in der hier transkribierten schriftlichen Quelle: vermutlich um 1800
C:Urheber unbekannt
C:Erstbeleg: 1767 (Datum in der schriftlichen Quelle)
C:Datum in der hier transkribierten schriftlichen Quelle: vermutlich um 1800
L:1/8
M:3/4
K:A
V:1 treble 
V:1
 e4 a2 | gf e4 | d2 c2 B2 | cBAG A2 | e4 a2 | ge f4 |{a} g2 fef^d | e6 :: e2 c2 ec | d2 B2 d2 | %10
 cedcBA | GABG E2 | e2 cedc | d2 BdcB |{d} c2 BABA | A6 :|[M:3/4]"^Trio" !fermata!A4 (3BAG | %17
 e2 e2 e2 | A4 (3cBA | a2 a2 a2 | A4 (3cBA | f2 f2 e2 | d2 fedc | B6 :: BGEGBd | cAEAce | d2 fedc | %27
 BAGF E2 | e4 f2 | eagfed |{d} c2 BABG | A6 :| %32

